X: 40106
T: Tickle Her Leg With The Barley Straw
R: jig
M: 6/8
K: Aminor
|:E2A AGE|G3 GED|E2A AGE|c2d e3|
E2A AGE|G3 GAB|c2e d2B|1 A3 A2G:|2 A3 Acd||
|:e2a age|g3 ged|e2a age|g3 ged|
e2a age|d3 GAB|c2e d2B|1 A3 Acd:|2 A3 A2G||

